Adwaita++-Light/panel/16/si-syncthing-4.svg

<svg height="16" width="16" xmlns="http://www.w3.org/2000/svg">
  <path d="m15 8a7 7 0 0 0 -6.9999999-7 7 7 0 0 0 -7 7 7 7 0 0 0 6.9999999 7 7 7 0 0 0 7-7zm-2-.0000001a5 5 0 0 1 -4.0566404 4.9082031 1.5 1.5 0 0 1 -1.4433596 1.091796 1.5 1.5 0 0 1 -1.4960931-1.421874 5 5 0 0 1 -2.5859375-2.5820316 1.5 1.5 0 0 1 -1.4179687-1.4960939 1.5 1.5 0 0 1 1.0937497-1.4433592 5 5 0 0 1 4.9062497-4.0566403 5 5 0 0 1 .0859375.0019531 1.5 1.5 0 0 1 1.4140625-1.0019531 1.5 1.5 0 0 1 1.4999999 1.5 1.5 1.5 0 0 1 -.072265.4550781 5 5 0 0 1 2.072265 4.0449218zm-1 .0000002a4 4 0 0 0 -1.673828-3.2480471 1.5 1.5 0 0 1 -.8261719.248047 1.5 1.5 0 0 1 -.0605468-.0039062l-.951172 2.3769531a1.5 1.5 0 0 1 .5117188 1.1269531 1.5 1.5 0 0 1 -1 1.4121094v1.1757816a1.5 1.5 0 0 1 .8710937.810546 4 4 0 0 0 3.1289062-3.8984369zm-3.4882811-3.3750001a1.5 1.5 0 0 1 -.421875-.6210938 4 4 0 0 0 -.0898438-.0039062 4 4 0 0 0 -3.9003908 3.1269529 1.5 1.5 0 0 1 .8124998.8730471h1.1757816a1.5 1.5 0 0 1 1.4121094-1 1.5 1.5 0 0 1 .060547.00391zm-1.5117187 5.2871091a1.5 1.5 0 0 1 -.9121092-.9121093l-1.175782.0000003a1.5 1.5 0 0 1 -.5253896.7050776 4 4 0 0 0 1.9062497 1.9062503 1.5 1.5 0 0 1 .7070329-.523434z" fill="#444"/>
</svg>

<svg xmlns="http://www.w3.org/2000/svg" width="16" height="16" version="1.1">
 <defs>
  <style id="current-color-scheme" type="text/css">
   .ColorScheme-Text { color:#444444; } .ColorScheme-Highlight { color:#4285f4; }
  </style>
 </defs>
 <path style="fill:currentColor" class="ColorScheme-Text" d="m 15,8 a 7,7 0 0 0 -6.9999999,-7 7,7 0 0 0 -7,7 A 7,7 0 0 0 8,15 7,7 0 0 0 15,8 Z m -2,-1e-7 A 5,5 0 0 1 8.9433596,12.908203 1.5,1.5 0 0 1 7.5,13.999999 1.5,1.5 0 0 1 6.0039069,12.578125 5,5 0 0 1 3.4179694,9.9960934 1.5,1.5 0 0 1 2.0000007,8.4999995 1.5,1.5 0 0 1 3.0937504,7.0566403 5,5 0 0 1 8.0000001,3 5,5 0 0 1 8.0859376,3.0019531 1.5,1.5 0 0 1 9.5000001,2 1.5,1.5 0 0 1 11,3.5 1.5,1.5 0 0 1 10.927735,3.9550781 5,5 0 0 1 13,7.9999999 Z m -1,2e-7 A 4,4 0 0 0 10.326172,4.751953 1.5,1.5 0 0 1 9.5000001,5 1.5,1.5 0 0 1 9.4394533,4.9960938 L 8.4882813,7.3730469 A 1.5,1.5 0 0 1 9.0000001,8.5 a 1.5,1.5 0 0 1 -1,1.4121094 l 0,1.1757816 A 1.5,1.5 0 0 1 8.8710938,11.898437 4,4 0 0 0 12,8.0000001 Z M 8.5117189,4.625 A 1.5,1.5 0 0 1 8.0898439,4.0039062 4,4 0 0 0 8.0000001,4 4,4 0 0 0 4.0996093,7.1269529 1.5,1.5 0 0 1 4.9121091,8 l 1.1757816,0 a 1.5,1.5 0 0 1 1.4121094,-1 1.5,1.5 0 0 1 0.060547,0.00391 L 8.5117189,4.625 Z M 7.0000002,9.9121091 A 1.5,1.5 0 0 1 6.087891,8.9999998 l -1.175782,3e-7 A 1.5,1.5 0 0 1 4.3867194,9.7050777 4,4 0 0 0 6.2929691,11.611328 1.5,1.5 0 0 1 7.000002,11.087894 l -1.8e-6,-1.1757849 z"/>
</svg>
